Newaita-dark/apps/48/gpk-prefs.svg

<svg height="48pt" viewBox="0 0 48 48" width="48pt" xmlns="http://www.w3.org/2000/svg" xmlns:xlink="http://www.w3.org/1999/xlink"><linearGradient id="a" gradientUnits="userSpaceOnUse" x1="23.81478" x2="23.81478" y1="42.0509045" y2="44.03547050005"><stop offset="0" stop-opacity=".27451"/><stop offset="1" stop-opacity="0"/></linearGradient><linearGradient id="b"><stop offset="0" stop-opacity=".313726"/><stop offset=".222222" stop-opacity=".27451"/><stop offset="1" stop-opacity="0"/></linearGradient><radialGradient id="c" cx="450.908936" cy="189.579361" gradientTransform="matrix(.00000026 -.117199 -.210958 -.00000015 79.684395 95.392999)" gradientUnits="userSpaceOnUse" r="21.166656" xlink:href="#b"/><radialGradient id="d" cx="450.908936" cy="189.579361" gradientTransform="matrix(-.00000026 .117199 .210958 .00000015 -31.80678 -11.291218)" gradientUnits="userSpaceOnUse" r="21.166656" xlink:href="#b"/><radialGradient id="e" cx="450.908936" cy="189.579361" gradientTransform="matrix(-.00000026 -.117199 .210958 -.00000015 -31.80678 95.392999)" gradientUnits="userSpaceOnUse" r="21.166656" xlink:href="#b"/><radialGradient id="f" cx="450.908936" cy="189.579361" gradientTransform="matrix(.00000026 .117199 -.210958 .00000015 79.684393 -11.291219)" gradientUnits="userSpaceOnUse" r="21.166656" xlink:href="#b"/><linearGradient id="g" gradientUnits="userSpaceOnUse" x1="23.814786" x2="23.814786" y1="4.3441580001" y2="42.0509015"><stop offset="0" stop-color="#bcaaa4"/><stop offset="1" stop-color="#a1887f"/></linearGradient><linearGradient id="h"><stop offset="0" stop-color="#66bb6a"/><stop offset="1" stop-color="#a5d6a7"/></linearGradient><linearGradient id="i" gradientUnits="userSpaceOnUse" x1="23.814786" x2="23.814786" xlink:href="#h" y1="33.12035615639" y2="4.3441560001"/><linearGradient id="j" gradientUnits="userSpaceOnUse" x1="34.7298952499" x2="34.7298952499" xlink:href="#h" y1="47.0123125" y2="9.3055690001"/><path d="m7.691406 42.050781h32.496094v1.984375h-32.496094zm0 0" fill="url(#a)"/><path d="m40.1875 42.050781h3.96875v-1.984375h-3.96875zm0 0" fill="url(#c)"/><path d="m7.691406 42.050781h-3.96875v1.984375h3.96875zm0 0" fill="url(#d)"/><path d="m7.691406 42.050781h-3.96875v-1.984375h3.96875zm0 0" fill="url(#e)"/><path d="m40.1875 42.050781h3.96875v1.984375h-3.96875zm0 0" fill="url(#f)"/><path d="m5.457031 4.34375h36.714844c.820313 0 1.488281.667969 1.488281 1.488281v34.730469c0 .820312-.667968 1.488281-1.488281 1.488281h-36.714844c-.820312 0-1.488281-.667969-1.488281-1.488281v-34.730469c0-.820312.667969-1.488281 1.488281-1.488281zm0 0" fill="url(#g)"/><path d="m3.96875 40.191406v.371094c0 .824219.664062 1.488281 1.488281 1.488281h36.714844c.824219 0 1.488281-.664062 1.488281-1.488281v-.371094c0 .824219-.664062 1.488282-1.488281 1.488282h-36.714844c-.824219 0-1.488281-.664063-1.488281-1.488282zm0 0" fill-opacity=".235294"/><path d="m5.953125 4.34375c-1.097656 0-1.984375.886719-1.984375 1.984375v.25c0-1.101563.886719-1.984375 1.984375-1.984375h35.722656c1.097657 0 1.984375.882812 1.984375 1.984375v-.25c0-1.097656-.886718-1.984375-1.984375-1.984375zm0 0" fill="#e6e6e6" fill-opacity=".588235"/><path d="m5.457031 4.34375c-.824219 0-1.488281.664062-1.488281 1.488281v3.96875c0 .175781.03125.34375.085938.496094h5.867187c.550781 0 .964844.445313.992187.992187v11.910157h-2.976562c-.882812 0-1.324219 1.066406-.699219 1.691406l7.9375 7.9375c.386719.386719 1.015625.386719 1.402344 0l7.9375-7.9375c.625-.625.183594-1.691406-.699219-1.691406h-2.976562v-11.910157c0-.546874.441406-.992187.992187-.992187h21.742188c.054687-.152344.085937-.320313.085937-.496094v-3.96875c0-.824219-.664062-1.488281-1.488281-1.488281zm0 0" fill="url(#i)"/><path d="m5.457031 4.34375c-.824219 0-1.488281.664062-1.488281 1.488281v.53125c0-.824219.664062-1.488281 1.488281-1.488281h36.714844c.824219 0 1.488281.664062 1.488281 1.488281v-.53125c0-.824219-.664062-1.488281-1.488281-1.488281zm2.480469 18.855469c-.699219 0-1.125.671875-.957031 1.261719.113281-.402344.464843-.734376.957031-.734376h2.976562v-.527343zm12.902344 0v.527343h2.976562c.488282 0 .84375.332032.957032.734376.164062-.589844-.257813-1.261719-.957032-1.261719zm0 0" fill="#fff" fill-opacity=".392157"/><path d="m5.457031 4.203125c-.898437 0-1.628906.730469-1.628906 1.628906v34.730469c0 .898438.730469 1.628906 1.628906 1.628906h36.714844c.898437 0 1.628906-.730468 1.628906-1.628906v-34.730469c0-.898437-.730469-1.628906-1.628906-1.628906zm0 .28125h36.714844c.75 0 1.347656.597656 1.347656 1.347656v34.730469c0 .75-.597656 1.347656-1.347656 1.347656h-36.714844c-.75 0-1.347656-.597656-1.347656-1.347656v-34.730469c0-.75.597656-1.347656 1.347656-1.347656zm0 0" fill="#212121"/><path d="m3.96875 9.90625v.496094c0 .171875.03125.339844.085938.496094h5.867187c.550781 0 .964844.441406.992187.992187v-.496094c-.027343-.550781-.441406-.992187-.992187-.992187h-5.867187c-.054688-.15625-.085938-.324219-.085938-.496094zm39.691406 0c0 .171875-.03125.339844-.085937.496094h-21.742188c-.550781 0-.992187.441406-.992187.992187v.496094c0-.550781.441406-.992187.992187-.992187h21.742188c.054687-.15625.085937-.324219.085937-.496094zm-36.683594 14.640625c-.082031.316406-.011718.671875.261719.945313l7.9375 7.9375c.386719.386718 1.015625.386718 1.402344 0l7.9375-7.9375c.273437-.273438.34375-.628907.261719-.945313-.042969.160156-.128906.3125-.261719.445313l-7.9375 7.941406c-.386719.386718-1.015625.386718-1.402344 0l-7.9375-7.941406c-.132812-.132813-.21875-.285157-.261719-.445313zm0 0" fill-opacity=".235294"/><path d="m219.979005 175.101398c-33.225176 0-59.994274 26.769099-59.994274 59.994274v159.984731c0 7.085938 1.259722 13.856945 3.464236 19.998091h236.51286c22.202605 0 38.893925 17.951043 39.996182 39.996183v480.111657h-119.988548c-35.587154 0-53.380732 42.988023-28.186286 68.182469l319.969461 319.969461c15.589064 15.589063 40.940975 15.589063 56.530038 0l319.969461-319.969461c25.194446-25.194446 7.400869-68.182469-28.186286-68.182469h-119.988548v-480.111657c0-22.04514 17.793577-39.996183 39.996183-39.996183h876.451782c2.204514-6.141146 3.464236-12.912153 3.464236-19.998091v-159.984731c0-33.225175-26.769098-59.994274-59.994274-59.994274zm0 0" fill="none" stroke="#212121" stroke-linecap="round" stroke-width="11.338583" transform="scale(.0248071)"/><path d="m31.753906 20.21875h4.960938c1.09375 0 1.984375.890625 1.984375 1.988281v10.914063c0 1.09375-.890625 1.984375-1.984375 1.984375h-4.960938c-1.097656 0-1.984375-.890625-1.984375-1.984375v-10.914063c0-1.097656.886719-1.988281 1.984375-1.988281zm0 0" fill="#616161"/><path d="m31.753906 20.21875h4.960938c1.09375 0 1.984375.890625 1.984375 1.988281v3.96875c0 1.09375-.890625 1.984375-1.984375 1.984375h-4.960938c-1.097656 0-1.984375-.890625-1.984375-1.984375v-3.96875c0-1.097656.886719-1.988281 1.984375-1.988281zm0 0" fill="url(#j)"/><path d="m29.769531 25.429688v.746093c0 1.097657.882813 1.984375 1.984375 1.984375h4.960938c1.097656 0 1.984375-.886718 1.984375-1.984375v-.746093c0 1.101562-.886719 1.984374-1.984375 1.984374h-4.960938c-1.101562 0-1.984375-.882812-1.984375-1.984374zm0 0" fill-opacity=".235294"/><path d="m29.769531 22.207031v-.992187c0-1.101563.882813-1.988282 1.984375-1.988282h4.960938c1.097656 0 1.984375.886719 1.984375 1.988282v.992187c0-1.101562-.886719-1.988281-1.984375-1.988281h-4.960938c-1.101562 0-1.984375.886719-1.984375 1.988281zm0 0" fill-opacity=".235294"/><path d="m31.753906 20.21875c-1.101562 0-1.984375.886719-1.984375 1.988281v.742188c0-1.097657.882813-1.984375 1.984375-1.984375h4.960938c1.097656 0 1.984375.886718 1.984375 1.984375v-.742188c0-1.101562-.886719-1.988281-1.984375-1.988281zm0 0" fill="#fff" fill-opacity=".392157"/><path d="m31.753906 29.152344c-1.101562 0-1.984375-.886719-1.984375-1.984375v-.992188c0 1.097657.882813 1.984375 1.984375 1.984375h4.960938c1.097656 0 1.984375-.886718 1.984375-1.984375v.992188c0 1.097656-.886719 1.984375-1.984375 1.984375zm0 0" fill-opacity=".235294"/><path d="m31.753906 20.078125c-1.175781 0-2.125.953125-2.125 2.128906v3.96875c0 1.171875.949219 2.125 2.125 2.125h4.960938c1.175781 0 2.125-.953125 2.125-2.125v-3.96875c0-1.175781-.949219-2.128906-2.125-2.128906zm0 .28125h4.960938c1.023437 0 1.84375.820313 1.84375 1.847656v3.96875c0 1.023438-.820313 1.84375-1.84375 1.84375h-4.960938c-1.023437 0-1.84375-.820312-1.84375-1.84375v-3.96875c0-1.027343.820313-1.847656 1.84375-1.847656zm0 0" fill="#212121"/><path d="m29.769531 33.121094v.992187c0 1.097657.882813 1.984375 1.984375 1.984375h4.960938c1.097656 0 1.984375-.886718 1.984375-1.984375v-.992187c0 1.097656-.886719 1.984375-1.984375 1.984375h-4.960938c-1.101562 0-1.984375-.886719-1.984375-1.984375zm0 0" fill="#fff" fill-opacity=".392157"/><path d="m31.753906 20.078125c-1.175781 0-2.125.953125-2.125 2.128906v10.914063c0 1.175781.949219 2.125 2.125 2.125h4.960938c1.175781 0 2.125-.949219 2.125-2.125v-10.914063c0-1.175781-.949219-2.128906-2.125-2.128906zm0 .28125h4.960938c1.023437 0 1.84375.820313 1.84375 1.847656v10.914063c0 1.023437-.820313 1.84375-1.84375 1.84375h-4.960938c-1.023437 0-1.84375-.820313-1.84375-1.84375v-10.914063c0-1.027343.820313-1.847656 1.84375-1.847656zm0 0" fill="#212121"/></svg>

<?xml version="1.0" encoding="UTF-8"?>
<svg xmlns="http://www.w3.org/2000/svg" xmlns:xlink="http://www.w3.org/1999/xlink" width="48pt" height="48pt" viewBox="0 0 48 48" version="1.1">
<defs>
<linearGradient id="linear0" gradientUnits="userSpaceOnUse" x1="254" y1="233.5" x2="254" y2="254.666672" gradientTransform="matrix(0.093759,0,0,0.093759,-0.00000572259,20.158178)">
<stop offset="0" style="stop-color:rgb(0%,0%,0%);stop-opacity:0.27451;"/>
<stop offset="1" style="stop-color:rgb(0%,0%,0%);stop-opacity:0;"/>
</linearGradient>
<radialGradient id="radial0" gradientUnits="userSpaceOnUse" cx="450.908936" cy="189.579361" fx="450.908936" fy="189.579361" r="21.166656" gradientTransform="matrix(0.000000261256,-0.117199,-0.210958,-0.000000152308,79.684395,95.392999)">
<stop offset="0" style="stop-color:rgb(0%,0%,0%);stop-opacity:0.313726;"/>
<stop offset="0.222222" style="stop-color:rgb(0%,0%,0%);stop-opacity:0.27451;"/>
<stop offset="1" style="stop-color:rgb(0%,0%,0%);stop-opacity:0;"/>
</radialGradient>
<radialGradient id="radial1" gradientUnits="userSpaceOnUse" cx="450.908936" cy="189.579361" fx="450.908936" fy="189.579361" r="21.166656" gradientTransform="matrix(-0.000000261256,0.117199,0.210958,0.000000152308,-31.80678,-11.291218)">
<stop offset="0" style="stop-color:rgb(0%,0%,0%);stop-opacity:0.313726;"/>
<stop offset="0.222222" style="stop-color:rgb(0%,0%,0%);stop-opacity:0.27451;"/>
<stop offset="1" style="stop-color:rgb(0%,0%,0%);stop-opacity:0;"/>
</radialGradient>
<radialGradient id="radial2" gradientUnits="userSpaceOnUse" cx="450.908936" cy="189.579361" fx="450.908936" fy="189.579361" r="21.166656" gradientTransform="matrix(-0.000000261256,-0.117199,0.210958,-0.000000152308,-31.80678,95.392999)">
<stop offset="0" style="stop-color:rgb(0%,0%,0%);stop-opacity:0.313726;"/>
<stop offset="0.222222" style="stop-color:rgb(0%,0%,0%);stop-opacity:0.27451;"/>
<stop offset="1" style="stop-color:rgb(0%,0%,0%);stop-opacity:0;"/>
</radialGradient>
<radialGradient id="radial3" gradientUnits="userSpaceOnUse" cx="450.908936" cy="189.579361" fx="450.908936" fy="189.579361" r="21.166656" gradientTransform="matrix(0.000000261256,0.117199,-0.210958,0.000000152308,79.684393,-11.291219)">
<stop offset="0" style="stop-color:rgb(0%,0%,0%);stop-opacity:0.313726;"/>
<stop offset="0.222222" style="stop-color:rgb(0%,0%,0%);stop-opacity:0.27451;"/>
<stop offset="1" style="stop-color:rgb(0%,0%,0%);stop-opacity:0;"/>
</radialGradient>
<linearGradient id="linear1" gradientUnits="userSpaceOnUse" x1="254" y1="-168.666656" x2="254" y2="233.5" gradientTransform="matrix(0.093759,0,0,0.093759,0,20.158175)">
<stop offset="0" style="stop-color:rgb(73.725492%,66.666669%,64.313728%);stop-opacity:1;"/>
<stop offset="1" style="stop-color:rgb(63.137257%,53.333336%,49.803922%);stop-opacity:1;"/>
</linearGradient>
<linearGradient id="linear2" gradientUnits="userSpaceOnUse" x1="254" y1="138.250015" x2="254" y2="-168.666656" gradientTransform="matrix(0.093759,0,0,0.093759,0,20.158173)">
<stop offset="0" style="stop-color:rgb(40.000001%,73.333335%,41.568628%);stop-opacity:1;"/>
<stop offset="1" style="stop-color:rgb(64.705884%,83.92157%,65.490198%);stop-opacity:1;"/>
</linearGradient>
<linearGradient id="linear3" gradientUnits="userSpaceOnUse" x1="370.416656" y1="233.5" x2="370.416656" y2="-168.666656" gradientTransform="matrix(0.093759,0,0,0.093759,0,25.119586)">
<stop offset="0" style="stop-color:rgb(40.000001%,73.333335%,41.568628%);stop-opacity:1;"/>
<stop offset="1" style="stop-color:rgb(64.705884%,83.92157%,65.490198%);stop-opacity:1;"/>
</linearGradient>
</defs>
<g id="surface1">
<path style=" stroke:none;fill-rule:nonzero;fill:url(#linear0);" d="M 7.691406 42.050781 L 40.1875 42.050781 L 40.1875 44.035156 L 7.691406 44.035156 Z M 7.691406 42.050781 "/>
<path style=" stroke:none;fill-rule:nonzero;fill:url(#radial0);" d="M 40.1875 42.050781 L 44.15625 42.050781 L 44.15625 40.066406 L 40.1875 40.066406 Z M 40.1875 42.050781 "/>
<path style=" stroke:none;fill-rule:nonzero;fill:url(#radial1);" d="M 7.691406 42.050781 L 3.722656 42.050781 L 3.722656 44.035156 L 7.691406 44.035156 Z M 7.691406 42.050781 "/>
<path style=" stroke:none;fill-rule:nonzero;fill:url(#radial2);" d="M 7.691406 42.050781 L 3.722656 42.050781 L 3.722656 40.066406 L 7.691406 40.066406 Z M 7.691406 42.050781 "/>
<path style=" stroke:none;fill-rule:nonzero;fill:url(#radial3);" d="M 40.1875 42.050781 L 44.15625 42.050781 L 44.15625 44.035156 L 40.1875 44.035156 Z M 40.1875 42.050781 "/>
<path style=" stroke:none;fill-rule:nonzero;fill:url(#linear1);" d="M 5.457031 4.34375 L 42.171875 4.34375 C 42.992188 4.34375 43.660156 5.011719 43.660156 5.832031 L 43.660156 40.5625 C 43.660156 41.382812 42.992188 42.050781 42.171875 42.050781 L 5.457031 42.050781 C 4.636719 42.050781 3.96875 41.382812 3.96875 40.5625 L 3.96875 5.832031 C 3.96875 5.011719 4.636719 4.34375 5.457031 4.34375 Z M 5.457031 4.34375 "/>
<path style=" stroke:none;fill-rule:nonzero;fill:rgb(0%,0%,0%);fill-opacity:0.235294;" d="M 3.96875 40.191406 L 3.96875 40.5625 C 3.96875 41.386719 4.632812 42.050781 5.457031 42.050781 L 42.171875 42.050781 C 42.996094 42.050781 43.660156 41.386719 43.660156 40.5625 L 43.660156 40.191406 C 43.660156 41.015625 42.996094 41.679688 42.171875 41.679688 L 5.457031 41.679688 C 4.632812 41.679688 3.96875 41.015625 3.96875 40.191406 Z M 3.96875 40.191406 "/>
<path style=" stroke:none;fill-rule:nonzero;fill:rgb(90.196079%,90.196079%,90.196079%);fill-opacity:0.588235;" d="M 5.953125 4.34375 C 4.855469 4.34375 3.96875 5.230469 3.96875 6.328125 L 3.96875 6.578125 C 3.96875 5.476562 4.855469 4.59375 5.953125 4.59375 L 41.675781 4.59375 C 42.773438 4.59375 43.660156 5.476562 43.660156 6.578125 L 43.660156 6.328125 C 43.660156 5.230469 42.773438 4.34375 41.675781 4.34375 Z M 5.953125 4.34375 "/>
<path style=" stroke:none;fill-rule:nonzero;fill:url(#linear2);" d="M 5.457031 4.34375 C 4.632812 4.34375 3.96875 5.007812 3.96875 5.832031 L 3.96875 9.800781 C 3.96875 9.976562 4 10.144531 4.054688 10.296875 L 9.921875 10.296875 C 10.472656 10.296875 10.886719 10.742188 10.914062 11.289062 L 10.914062 23.199219 L 7.9375 23.199219 C 7.054688 23.199219 6.613281 24.265625 7.238281 24.890625 L 15.175781 32.828125 C 15.5625 33.214844 16.191406 33.214844 16.578125 32.828125 L 24.515625 24.890625 C 25.140625 24.265625 24.699219 23.199219 23.816406 23.199219 L 20.839844 23.199219 L 20.839844 11.289062 C 20.839844 10.742188 21.28125 10.296875 21.832031 10.296875 L 43.574219 10.296875 C 43.628906 10.144531 43.660156 9.976562 43.660156 9.800781 L 43.660156 5.832031 C 43.660156 5.007812 42.996094 4.34375 42.171875 4.34375 Z M 5.457031 4.34375 "/>
<path style=" stroke:none;fill-rule:nonzero;fill:rgb(100%,100%,100%);fill-opacity:0.392157;" d="M 5.457031 4.34375 C 4.632812 4.34375 3.96875 5.007812 3.96875 5.832031 L 3.96875 6.363281 C 3.96875 5.539062 4.632812 4.875 5.457031 4.875 L 42.171875 4.875 C 42.996094 4.875 43.660156 5.539062 43.660156 6.363281 L 43.660156 5.832031 C 43.660156 5.007812 42.996094 4.34375 42.171875 4.34375 Z M 7.9375 23.199219 C 7.238281 23.199219 6.8125 23.871094 6.980469 24.460938 C 7.09375 24.058594 7.445312 23.726562 7.9375 23.726562 L 10.914062 23.726562 L 10.914062 23.199219 Z M 20.839844 23.199219 L 20.839844 23.726562 L 23.816406 23.726562 C 24.304688 23.726562 24.660156 24.058594 24.773438 24.460938 C 24.9375 23.871094 24.515625 23.199219 23.816406 23.199219 Z M 20.839844 23.199219 "/>
<path style=" stroke:none;fill-rule:nonzero;fill:rgb(12.941177%,12.941177%,12.941177%);fill-opacity:1;" d="M 5.457031 4.203125 C 4.558594 4.203125 3.828125 4.933594 3.828125 5.832031 L 3.828125 40.5625 C 3.828125 41.460938 4.558594 42.191406 5.457031 42.191406 L 42.171875 42.191406 C 43.070312 42.191406 43.800781 41.460938 43.800781 40.5625 L 43.800781 5.832031 C 43.800781 4.933594 43.070312 4.203125 42.171875 4.203125 Z M 5.457031 4.484375 L 42.171875 4.484375 C 42.921875 4.484375 43.519531 5.082031 43.519531 5.832031 L 43.519531 40.5625 C 43.519531 41.3125 42.921875 41.910156 42.171875 41.910156 L 5.457031 41.910156 C 4.707031 41.910156 4.109375 41.3125 4.109375 40.5625 L 4.109375 5.832031 C 4.109375 5.082031 4.707031 4.484375 5.457031 4.484375 Z M 5.457031 4.484375 "/>
<path style=" stroke:none;fill-rule:nonzero;fill:rgb(0%,0%,0%);fill-opacity:0.235294;" d="M 3.96875 9.90625 L 3.96875 10.402344 C 3.96875 10.574219 4 10.742188 4.054688 10.898438 L 9.921875 10.898438 C 10.472656 10.898438 10.886719 11.339844 10.914062 11.890625 L 10.914062 11.394531 C 10.886719 10.84375 10.472656 10.402344 9.921875 10.402344 L 4.054688 10.402344 C 4 10.246094 3.96875 10.078125 3.96875 9.90625 Z M 43.660156 9.90625 C 43.660156 10.078125 43.628906 10.246094 43.574219 10.402344 L 21.832031 10.402344 C 21.28125 10.402344 20.839844 10.84375 20.839844 11.394531 L 20.839844 11.890625 C 20.839844 11.339844 21.28125 10.898438 21.832031 10.898438 L 43.574219 10.898438 C 43.628906 10.742188 43.660156 10.574219 43.660156 10.402344 Z M 6.976562 24.546875 C 6.894531 24.863281 6.964844 25.21875 7.238281 25.492188 L 15.175781 33.429688 C 15.5625 33.816406 16.191406 33.816406 16.578125 33.429688 L 24.515625 25.492188 C 24.789062 25.21875 24.859375 24.863281 24.777344 24.546875 C 24.734375 24.707031 24.648438 24.859375 24.515625 24.992188 L 16.578125 32.933594 C 16.191406 33.320312 15.5625 33.320312 15.175781 32.933594 L 7.238281 24.992188 C 7.105469 24.859375 7.019531 24.707031 6.976562 24.546875 Z M 6.976562 24.546875 "/>
<path style="fill:none;stroke-width:11.338583;stroke-linecap:round;stroke-linejoin:miter;stroke:rgb(12.941177%,12.941177%,12.941177%);stroke-opacity:1;stroke-miterlimit:4;" d="M 219.979005 175.101398 C 186.753829 175.101398 159.984731 201.870497 159.984731 235.095672 L 159.984731 395.080403 C 159.984731 402.166341 161.244453 408.937348 163.448967 415.078494 L 399.961827 415.078494 C 422.164432 415.078494 438.855752 433.029537 439.958009 455.074677 L 439.958009 935.186334 L 319.969461 935.186334 C 284.382307 935.186334 266.588729 978.174357 291.783175 1003.368803 L 611.752636 1323.338264 C 627.3417 1338.927327 652.693611 1338.927327 668.282674 1323.338264 L 988.252135 1003.368803 C 1013.446581 978.174357 995.653004 935.186334 960.065849 935.186334 L 840.077301 935.186334 L 840.077301 455.074677 C 840.077301 433.029537 857.870878 415.078494 880.073484 415.078494 L 1756.525266 415.078494 C 1758.72978 408.937348 1759.989502 402.166341 1759.989502 395.080403 L 1759.989502 235.095672 C 1759.989502 201.870497 1733.220404 175.101398 1699.995228 175.101398 Z M 219.979005 175.101398 " transform="matrix(0.0248071,0,0,0.0248071,0,0)"/>
<path style=" stroke:none;fill-rule:nonzero;fill:rgb(38.039216%,38.039216%,38.039216%);fill-opacity:1;" d="M 31.753906 20.21875 L 36.714844 20.21875 C 37.808594 20.21875 38.699219 21.109375 38.699219 22.207031 L 38.699219 33.121094 C 38.699219 34.214844 37.808594 35.105469 36.714844 35.105469 L 31.753906 35.105469 C 30.65625 35.105469 29.769531 34.214844 29.769531 33.121094 L 29.769531 22.207031 C 29.769531 21.109375 30.65625 20.21875 31.753906 20.21875 Z M 31.753906 20.21875 "/>
<path style=" stroke:none;fill-rule:nonzero;fill:url(#linear3);" d="M 31.753906 20.21875 L 36.714844 20.21875 C 37.808594 20.21875 38.699219 21.109375 38.699219 22.207031 L 38.699219 26.175781 C 38.699219 27.269531 37.808594 28.160156 36.714844 28.160156 L 31.753906 28.160156 C 30.65625 28.160156 29.769531 27.269531 29.769531 26.175781 L 29.769531 22.207031 C 29.769531 21.109375 30.65625 20.21875 31.753906 20.21875 Z M 31.753906 20.21875 "/>
<path style=" stroke:none;fill-rule:nonzero;fill:rgb(0%,0%,0%);fill-opacity:0.235294;" d="M 29.769531 25.429688 L 29.769531 26.175781 C 29.769531 27.273438 30.652344 28.160156 31.753906 28.160156 L 36.714844 28.160156 C 37.8125 28.160156 38.699219 27.273438 38.699219 26.175781 L 38.699219 25.429688 C 38.699219 26.53125 37.8125 27.414062 36.714844 27.414062 L 31.753906 27.414062 C 30.652344 27.414062 29.769531 26.53125 29.769531 25.429688 Z M 29.769531 25.429688 "/>
<path style=" stroke:none;fill-rule:nonzero;fill:rgb(0%,0%,0%);fill-opacity:0.235294;" d="M 29.769531 22.207031 L 29.769531 21.214844 C 29.769531 20.113281 30.652344 19.226562 31.753906 19.226562 L 36.714844 19.226562 C 37.8125 19.226562 38.699219 20.113281 38.699219 21.214844 L 38.699219 22.207031 C 38.699219 21.105469 37.8125 20.21875 36.714844 20.21875 L 31.753906 20.21875 C 30.652344 20.21875 29.769531 21.105469 29.769531 22.207031 Z M 29.769531 22.207031 "/>
<path style=" stroke:none;fill-rule:nonzero;fill:rgb(100%,100%,100%);fill-opacity:0.392157;" d="M 31.753906 20.21875 C 30.652344 20.21875 29.769531 21.105469 29.769531 22.207031 L 29.769531 22.949219 C 29.769531 21.851562 30.652344 20.964844 31.753906 20.964844 L 36.714844 20.964844 C 37.8125 20.964844 38.699219 21.851562 38.699219 22.949219 L 38.699219 22.207031 C 38.699219 21.105469 37.8125 20.21875 36.714844 20.21875 Z M 31.753906 20.21875 "/>
<path style=" stroke:none;fill-rule:nonzero;fill:rgb(0%,0%,0%);fill-opacity:0.235294;" d="M 31.753906 29.152344 C 30.652344 29.152344 29.769531 28.265625 29.769531 27.167969 L 29.769531 26.175781 C 29.769531 27.273438 30.652344 28.160156 31.753906 28.160156 L 36.714844 28.160156 C 37.8125 28.160156 38.699219 27.273438 38.699219 26.175781 L 38.699219 27.167969 C 38.699219 28.265625 37.8125 29.152344 36.714844 29.152344 Z M 31.753906 29.152344 "/>
<path style=" stroke:none;fill-rule:nonzero;fill:rgb(12.941177%,12.941177%,12.941177%);fill-opacity:1;" d="M 31.753906 20.078125 C 30.578125 20.078125 29.628906 21.03125 29.628906 22.207031 L 29.628906 26.175781 C 29.628906 27.347656 30.578125 28.300781 31.753906 28.300781 L 36.714844 28.300781 C 37.890625 28.300781 38.839844 27.347656 38.839844 26.175781 L 38.839844 22.207031 C 38.839844 21.03125 37.890625 20.078125 36.714844 20.078125 Z M 31.753906 20.359375 L 36.714844 20.359375 C 37.738281 20.359375 38.558594 21.179688 38.558594 22.207031 L 38.558594 26.175781 C 38.558594 27.199219 37.738281 28.019531 36.714844 28.019531 L 31.753906 28.019531 C 30.730469 28.019531 29.910156 27.199219 29.910156 26.175781 L 29.910156 22.207031 C 29.910156 21.179688 30.730469 20.359375 31.753906 20.359375 Z M 31.753906 20.359375 "/>
<path style=" stroke:none;fill-rule:nonzero;fill:rgb(100%,100%,100%);fill-opacity:0.392157;" d="M 29.769531 33.121094 L 29.769531 34.113281 C 29.769531 35.210938 30.652344 36.097656 31.753906 36.097656 L 36.714844 36.097656 C 37.8125 36.097656 38.699219 35.210938 38.699219 34.113281 L 38.699219 33.121094 C 38.699219 34.21875 37.8125 35.105469 36.714844 35.105469 L 31.753906 35.105469 C 30.652344 35.105469 29.769531 34.21875 29.769531 33.121094 Z M 29.769531 33.121094 "/>
<path style=" stroke:none;fill-rule:nonzero;fill:rgb(12.941177%,12.941177%,12.941177%);fill-opacity:1;" d="M 31.753906 20.078125 C 30.578125 20.078125 29.628906 21.03125 29.628906 22.207031 L 29.628906 33.121094 C 29.628906 34.296875 30.578125 35.246094 31.753906 35.246094 L 36.714844 35.246094 C 37.890625 35.246094 38.839844 34.296875 38.839844 33.121094 L 38.839844 22.207031 C 38.839844 21.03125 37.890625 20.078125 36.714844 20.078125 Z M 31.753906 20.359375 L 36.714844 20.359375 C 37.738281 20.359375 38.558594 21.179688 38.558594 22.207031 L 38.558594 33.121094 C 38.558594 34.144531 37.738281 34.964844 36.714844 34.964844 L 31.753906 34.964844 C 30.730469 34.964844 29.910156 34.144531 29.910156 33.121094 L 29.910156 22.207031 C 29.910156 21.179688 30.730469 20.359375 31.753906 20.359375 Z M 31.753906 20.359375 "/>
</g>
</svg>
